icon/pk/screwdriver.svg

<svg viewBox="0 0 48 48" fill="none" xmlns="http://www.w3.org/2000/svg" height="1em" width="1em">
  <path d="M19 24H29V29C29.9613 29.9763 31.0387 31.5237 32 32.5V44H16V32.5L19 29V24Z" fill="#2F88FF" stroke="black" stroke-width="4" stroke-linejoin="round"/>
  <path d="M21 13V24H27V13L29 10L27 4H21L19 10L21 13Z" stroke="black" stroke-width="4" stroke-linecap="round" stroke-linejoin="round"/>
</svg>

<svg width="48" height="48" fill="none" xmlns="http://www.w3.org/2000/svg"><path d="M19 24h10v5c.961.976 2.039 2.524 3 3.5V44H16V32.5l3-3.5v-5Z" fill="#2F88FF" stroke="#000" stroke-width="4" stroke-linejoin="round"/><path d="M21 13v11h6V13l2-3-2-6h-6l-2 6 2 3Z" stroke="#000" stroke-width="4" stroke-linecap="round" stroke-linejoin="round"/></svg>
